svg/uf011c-light.svg

<svg height="960" style="" width="1643" xmlns="http://www.w3.org/2000/svg"><path d="m1320.9273 731.8606-277.4117-272.23689-217.39138 5.88621 494.22528 494.49008zm202.1229-281.26737h-700.60136l152.31337-158.53025h394.42029zm0-330.59323h-700.60137l152.31335 158.53026h394.42032zm-701.55018 312.71972 135.798-140.65674h-271.596zm-493.30236 299.14088 277.41194-272.23689 217.3913 5.88621-494.22534 494.49008zm-208.24786-281.26737h700.60122l-152.31336-158.53025h-394.42029zm0-330.59323h700.60122l-152.31336 158.53026h-394.42029z" style="stroke-width:170.621"/></svg>

<svg xmlns="http://www.w3.org/2000/svg" width="1643" height="960">
    <path d="m1320.927 731.86-277.411-272.236-217.392 5.886L1320.35 960zm202.123-281.267H822.45l152.313-158.53h394.42zm0-330.593H822.45l152.313 158.53h394.42zM821.5 432.72l135.798-140.657H685.702zM328.198 731.86 605.61 459.625 823 465.51 328.777 960zM119.95 450.594H820.55l-152.313-158.53h-394.42zm0-330.593H820.55L668.238 278.53h-394.42z" style="stroke-width:170.621"/>
</svg>
